X:546
T:Money Musk
R:Strathspey
L:1/8
K:G
e|"G"d<GB>G d>Gc>e|"G"d<GB>G "D"A/B/A c>e|
"G"d<GB>G "G/B"B/c/d d>g|"C"e>c"D"A>d "G"B<G G:|!
f|"G"g2d>g B>gd>f|"G"g>d"Am"c>g "G/B"B>g"D"A>f|
"G"g>de>g "G/B"d>gB>g|"C"e>c"D"A>d "G"B<GG>f|!
f|"G"g>dd>g B>gd>f|"G"g>d"Am"c>g "G/B"B>g"D"A>f|
"G/B"g>d"C"e>g "G/B"d>g"Am"c<g|"G/D"B<g"D"A>c "G"B<G G|!
|:g|"G"G/G/G B>G B/dG/ c<e|"G"G/G/G B<g "D"A/A/A c<e|
"G"G/G/G B<G "G/B"B/c/d d<g|{de}"F"=f>c A/B/c "G"B<G G:|!
z/d/|"G"g>d B<g d<gB>d|"G"g>d "Am"c<g "G/B"B<g"D"A>d|
"G"g>d B<g "G/B"d<gB<g|"C"e/f/g "D"A/B/c "G"B<GG>d|!
"G"g>d B<g d<gB>d|"G"g/f/e "G/B"d<g "G"B<g"D"A>d|
"G"g>d "C"e<g "G/B"d<g"Am"c<g|"G/D"B<g"D"A<g "G"B<G G|]

